X: 133
T: O słudzy Pańscy, ze wszech naświętszemu
C: Mikołaj Gomółka
%%abc-version 2.0
%%abcx-abcm2ps-target-version 5.9.1 (29 Sep 2008)
%%abc-creator hum2abc beta
%%abcx-conversion-date 2021/10/04 07:59:09
%%abc-edited-by Anna Matuszewska
%%humdrum-veritas 3282609238
%%humdrum-veritas-data 3013075804
%%linebreak <none>
%%barnumbers 0
L: 1/4
M: C|
N: Derived from pl-wn--sd-xvi-qu-273--135_gomolka-mikolaj--o-sludzy-panscy-ze-wszech-naswietszemu.krn
%%staves [1 2 3 4]
V: 1
V: 2 clef=alto
V: 3 clef=alto
V: 4 clef=bass
K: F
[V:1] F4G2G2 | 
[V:2] D4D2E2 | 
[V:3] A,4B,2C2 | 
[V:4] D,4G,2C,2 [|] 
[V:1] A4A2c3 | 
[V:2] F2F2>G2A2 | 
[V:3] C2D2D2E2 | 
[V:4] F,2D,4A,,2 [|] 
[V:1] BA4G2 | 
[V:2] D2>C2B,A,B,2 | 
[V:3] F2>E2DCB,2 | 
[V:4] D,2D,2G,4 [|] 
[V:1] A2F2>G2A2 | 
[V:2] C2A,2D2C2 | 
[V:3] A,2C2B,2A,2 | 
[V:4] F,2F,,2B,,2F,,2 [|] 
[V:1] B2B2A2A4 | 
[V:2] B,CDEF2DE | 
[V:3] G,4F,G,A,B, | 
[V:4] G,,A,,B,,C,D,E,F,G, [|] 
[V:1] A2G2F4 | 
[V:2] FED2C2DB, | 
[V:3] CB,A,F,G,2A,F, | 
[V:4] A,G,F,2E,2D,2 [|] 
[V:1] E2F4 |]  
[V:2] C2>B,2A,4 |]  
[V:3] G,A,G,2F,4 |]  
[V:4] C,4F,,4 | 


